X:1
T:Lord Louth
T:Lord Louth
T:Carolan
C:Carolan
L:1/8
M:6/8
K:C
V:1 treble 
V:1
 G | A/B/cc c>dc | BGg Te2 d | c2 c cGc | Bcd d2 e/f/ | gec gec | c'ba gec | f2 f faf | %8
 fag [ceg]2 || B/c/ | d2 d dBG | dBG d2 d | e2 e ecA | ecA Tf2 g | edc c'cc | f/g/af gag | %16
 fed TB>AG | ECE GE/F/G | GEF GEC | FDF AF/G/A | AF/G/A dBG | (e/f/g)e (d/e/f)d | %22
 (e/f/g)e (f/g/a)f | cBA GcB | c3 C2 || %25

